X:2
T:Banshee's Wail
C:Vincent Broderick
R:jig
M:6/8
L:1/8
K:G
GED DED | GBd ege | dBA AGA | BGE E2A |
GED DED | GBd ege | dBA AGA | BGF G2A :|
Bdd edd | gdd edB | BAG GAB | AGE E2G |
Bdd edd | gdd edB | BAG GAB | AGF G3 |
Bdd edd | gdd edB | BAG GAB | AGE E2A |
GED DED | GBd ege | dBA AGA | BGF G3 |]
